assets/images/ico_v.svg

<svg width="30" height="31" viewBox="0 0 30 31" fill="none" xmlns="http://www.w3.org/2000/svg">
<path d="M14.892 0C6.664 0 0 6.7424 0 15.0672C0 23.392 6.664 30.1344 14.892 30.1344C23.12 30.1344 29.784 23.392 29.784 15.0672C29.784 6.7424 23.12 0 14.892 0ZM20.332 10.2168C21.726 10.1824 22.44 11.9024 21.454 12.9L14.246 20.1928C13.804 20.64 13.056 20.64 12.614 20.1928L8.97599 16.4432C7.47999 14.964 9.69 12.728 11.152 14.2416L13.192 16.3056C13.328 16.4432 13.6 16.4432 13.736 16.3056L19.312 10.664C19.55 10.3888 19.924 10.2168 20.332 10.2168Z" fill="white"/>
</svg>

<svg width="30" height="31" fill="none" xmlns="http://www.w3.org/2000/svg"><path d="M14.892 0C6.664 0 0 6.742 0 15.067s6.664 15.067 14.892 15.067 14.892-6.742 14.892-15.067S23.12 0 14.892 0zm5.44 10.217c1.394-.035 2.108 1.685 1.122 2.683l-7.208 7.293a1.16 1.16 0 01-1.632 0l-3.638-3.75c-1.496-1.479.714-3.715 2.176-2.201l2.04 2.064a.41.41 0 00.544 0l5.576-5.642a1.35 1.35 0 011.02-.447z" fill="#fff"/></svg>
